X: 2
T: Schottisch F
M:2/4
L:1/16
K:F 
aa |: "F"a2c'2 a2c'2 | a2ff fefg | a2c'2 a2c'2 | "C"g4 e2gg | "G7"g4 a2b2 | "C"c'4 g2bb | "G7"bagf BafB |1 
"C"ceGc EGCa :|2 "C"cgeg c'2cc || "F"c2Ac fff2 | "C7"e2ce g2c'c' | c'2eb c2ce | "F"facf AcFc | 
c2Ac fff2 | "C7"e2ce g2c'c' | c'2eb c2ce | "F"faca f2cc | c2Ac fff2 | "C7"e2ce g2c'c' | 
c'2eb c2ce | "F"facf AcFA | "Bb"B2dd d2cB | "F"ACFA cfaf | "C7"edcB EGce | "F"f2f2 f2z2 |] 

